ui/StatusQ/src/assets/img/icons/emojiCategories/activity.svg

<svg fill="none" height="20" viewBox="0 0 20 20" width="20" xmlns="http://www.w3.org/2000/svg"><path clip-rule="evenodd" d="m14.7501 18.2272c4.5438-2.6233 6.1006-8.43342 3.4773-12.9772-2.6234-4.543781-8.4335-6.100595-12.97728-3.47724-4.543779 2.62335-6.100592 8.43344-3.47724 12.97724 2.62335 4.5438 8.43342 6.1006 12.97722 3.4772zm2.5871-7.2768c.2885.1394.6192-.0515.6427-.3711.1135-1.54406-.2191-3.1374-1.0516-4.5793-.8325-1.44191-2.046-2.52662-3.44-3.20037-.2885-.13942-.6192.05152-.6427.37105-.1135 1.5441.2191 3.13743 1.0516 4.57933.8325 1.44191 2.0461 2.52659 3.44 3.20039zm-.2526 1.5327c.2516.1076.387.3903.2803.6423-.6546 1.5456-1.7991 2.8989-3.3648 3.8028-1.5656.9039-3.3099 1.2185-4.97571 1.0125-.27153-.0335-.44873-.2921-.41607-.5638.23671-1.9686-.13855-4.0276-1.20624-5.8769-1.06769-1.84931-2.66325-3.20383-4.48646-3.98313-.25158-.10754-.38693-.39029-.28024-.64223.65455-1.54566 1.79907-2.89891 3.36474-3.80284 1.56567-.90394 3.30988-1.21851 4.97568-1.01253.2716.03357.4488.29216.4161.5638-.2367 1.9686.1386 4.02765 1.2063 5.87695 1.0677 1.84928 2.6632 3.20378 4.4864 3.98308zm-14.01268 1.5169c-.83249-1.4419-1.16509-3.0352-1.05158-4.57934.02348-.31952.35421-.51047.64267-.37105 1.39398.67375 2.60754 1.75849 3.44003 3.20039.83248 1.4419 1.16508 3.0352 1.05158 4.5793-.02349.3195-.35421.5105-.64267.3711-1.39398-.6738-2.60755-1.7585-3.44003-3.2004z" fill="#939ba1" fill-rule="evenodd"/></svg>

<svg width="20" height="20" viewBox="0 0 20 20" fill="none" xmlns="http://www.w3.org/2000/svg">
<path fill-rule="evenodd" clip-rule="evenodd" d="M14.7501 18.2272C19.2939 15.6039 20.8507 9.79378 18.2274 5.25C15.604 0.706219 9.7939 -0.850595 5.25012 1.77276C0.706341 4.39611 -0.850472 10.2062 1.77288 14.75C4.39623 19.2938 10.2063 20.8506 14.7501 18.2272ZM17.3372 10.9504C17.6257 11.0898 17.9564 10.8989 17.9799 10.5793C18.0934 9.03524 17.7608 7.4419 16.9283 6C16.0958 4.55809 14.8823 3.47338 13.4883 2.79963C13.1998 2.66021 12.8691 2.85115 12.8456 3.17068C12.7321 4.71478 13.0647 6.30811 13.8972 7.75001C14.7297 9.19192 15.9433 10.2766 17.3372 10.9504ZM17.0846 12.4831C17.3362 12.5907 17.4716 12.8734 17.3649 13.1254C16.7103 14.671 15.5658 16.0243 14.0001 16.9282C12.4345 17.8321 10.6902 18.1467 9.02439 17.9407C8.75286 17.9072 8.57566 17.6486 8.60832 17.3769C8.84503 15.4083 8.46977 13.3493 7.40208 11.5C6.33439 9.65069 4.73883 8.29617 2.91562 7.51687C2.66404 7.40933 2.52869 7.12658 2.63538 6.87464C3.28993 5.32898 4.43445 3.97573 6.00012 3.0718C7.56579 2.16786 9.31 1.85329 10.9758 2.05927C11.2474 2.09284 11.4246 2.35143 11.3919 2.62307C11.1552 4.59167 11.5305 6.65072 12.5982 8.50002C13.6659 10.3493 15.2614 11.7038 17.0846 12.4831ZM3.07192 14C2.23943 12.5581 1.90683 10.9648 2.02034 9.42066C2.04382 9.10114 2.37455 8.91019 2.66301 9.04961C4.05699 9.72336 5.27055 10.8081 6.10304 12.25C6.93552 13.6919 7.26812 15.2852 7.15462 16.8293C7.13113 17.1488 6.80041 17.3398 6.51195 17.2004C5.11797 16.5266 3.9044 15.4419 3.07192 14Z" fill="#939BA1"/>
</svg>
